src/assets/images/matching_images/Mackerel.svg

<svg width="69" height="88" viewBox="0 0 69 88" fill="none" xmlns="http://www.w3.org/2000/svg">
<path d="M37.9395 4.75745C35.8984 2.79421 32.6228 2.96375 30.7417 5.08074C14.1806 23.7185 -7.78571 46.4265 7.52336 69.39C25.781 96.7762 54.462 83.733 62.5537 69.39C72.8757 51.0936 67.4216 33.1153 37.9395 4.75745Z" fill="#F8F7F2" stroke="black" stroke-width="3"/>
<path d="M37.0601 3.7747C35.2118 1.62897 31.8687 1.79256 29.9944 3.91556C13.496 22.6028 -7.97503 45.672 7.94067 68.2191C14.9659 78.1713 85.2179 69.6826 58.5802 57.9741C-6.82746 29.2243 59.9093 30.3013 37.0601 3.7747Z" fill="#DBE4E7" stroke="black" stroke-width="3"/>
<path d="M52.982 31.9224C52.982 32.2186 52.8055 32.6312 52.3096 33.0275C51.9585 33.3081 51.539 33.5009 51.1413 33.5886C51.1459 33.5574 51.1507 33.5248 51.1557 33.4906C51.1603 33.4597 51.165 33.4275 51.1699 33.394C51.2276 33.0015 51.2988 32.4849 51.2988 31.9224C51.2988 31.2738 51.1429 30.5806 51.0031 30.0273C50.9396 29.7761 50.8798 29.554 50.8242 29.3473C50.7815 29.1884 50.7412 29.0387 50.7036 28.8919C51.0314 29.1256 51.3784 29.433 51.7079 29.788C52.1114 30.2226 52.4522 30.6893 52.6837 31.1133C52.9316 31.5676 52.982 31.8406 52.982 31.9224ZM50.5301 33.633C50.5303 33.6329 50.5345 33.6335 50.542 33.6353C50.5337 33.6341 50.5299 33.6332 50.5301 33.633ZM51.0713 34.2376C51.0723 34.2453 51.0725 34.2495 51.0724 34.2497C51.0722 34.2499 51.0717 34.2461 51.0713 34.2376Z" fill="#664C3B" stroke="black" stroke-width="3"/>
<path d="M67.3394 51.7933C67.414 46.6759 59.7146 47.407 55.4194 50.1899C37.8828 61.5521 -4.68904 48.1229 6.55811 67.6338C24.3033 98.4173 54.4741 83.1477 62.5658 68.8047C66.0365 62.6527 67.2659 56.8419 67.3394 51.7933Z" fill="#5B5851" stroke="black" stroke-width="3"/>
</svg>

<svg xmlns="http://www.w3.org/2000/svg" width="69" height="88" fill="none" viewBox="0 0 69 88"><path fill="#f8f7f2" stroke="#000" stroke-width="3" d="M37.94 4.757c-2.042-1.963-5.317-1.793-7.198.324C14.18 23.719-7.786 46.427 7.523 69.39c18.258 27.386 46.939 14.343 55.03 0C72.877 51.094 67.423 33.115 37.94 4.757Z"/><path fill="#dbe4e7" stroke="#000" stroke-width="3" d="M37.06 3.775c-1.848-2.146-5.191-1.982-7.066.14C13.496 22.604-7.975 45.673 7.941 68.22c7.025 9.952 77.277 1.464 50.64-10.245-65.408-28.75 1.328-27.673-21.52-54.2Z"/><path fill="#664c3b" stroke="#000" stroke-width="3" d="M52.982 31.922c0 .297-.176.71-.672 1.106a2.9 2.9 0 0 1-1.169.56l.015-.097.014-.097c.058-.392.129-.91.129-1.472 0-.648-.156-1.341-.296-1.895-.063-.25-.123-.473-.179-.68q-.064-.236-.12-.455a6.8 6.8 0 0 1 1.004.896c.403.435.744.901.976 1.325.248.455.298.728.298.81Zm-2.452 1.711.012.002zm.541.605Z"/><path fill="#5b5851" stroke="#000" stroke-width="3" d="M67.34 51.793c.074-5.117-7.625-4.386-11.92-1.603C37.882 61.552-4.69 48.123 6.557 67.634c17.745 30.783 47.916 15.514 56.008 1.17 3.47-6.151 4.7-11.962 4.773-17.01Z"/></svg>
